X: 203
T:In exitu Israel de Egypto / Deus autem noster in celo / Dominus memor fuit nostri
N: Derived from Jos1704-In_exitu_Israel_de_Egypto.krn
C: Josquin des Prez
%%abc-version 2.0
%%abcx-abcm2ps-target-version 5.9.1 (29 Sep 2008)
%%abc-creator hum2abc beta
%%abcx-conversion-date 2019/02/12 16:15:48
%%abc-edited-by Jesse Rodin
%%abc-edited-by Joel Chapman 2011/12/23
%%abcx-initial-encoding-date 2011/12/23/
%%humdrum-veritas 2170578736
%%humdrum-veritas-data 1330012401
%%linebreak <none>
%%barnumbers 0
L: 1/4
M: 2/1
Q: 1/2=120
%%staves [1 2 3 4]
V: 1 clef=treble
V: 2 clef=treble-8
V: 3 clef=treble-8
V: 4 clef=bass
K: F
[V:1] A4A4- | 
[V:2] z8 | 
[V:3] z8 | 
[V:4] z8 | 
[V:1] A2A2A4 | 
[V:2] d4d4- | 
[V:3] z8 | 
[V:4] z8 | 
[V:1] A2A2A4 | 
[V:2] d2d2d4 | 
[V:3] z8 | 
[V:4] z8 | 
[V:1] B4A4 | 
[V:2] d2d2d4 | 
[V:3] z8 | 
[V:4] z8 | 
[V:1] G4F4 | 
[V:2] _e4d4 | 
[V:3] z8 | 
[V:4] z8 | 
[V:1] z2G4G2 | 
[V:2] c4B4 | 
[V:3] z8 | 
[V:4] z8 | 
[V:1] G4A4 | 
[V:2] c2c2c4 | 
[V:3] z8 | 
[V:4] z8 | 
[V:1] F4G4- | 
[V:2] d4B4 | 
[V:3] z8 | 
[V:4] z8 | 
[V:1] G2G2G2B2- | 
[V:2] c2c2G4 | 
[V:3] z8 | 
[V:4] z8 | 
[V:1] BAG4^F2 | 
[V:2] B2c2A4 | 
[V:3] z8 | 
[V:4] z8 | 
[V:1] G4B4- | 
[V:2] G8 | 
[V:3] d6d2 | 
[V:4] z4G,4- | 
[V:1] B2B2B4 | 
[V:2] g6g2 | 
[V:3] d4_e4 | 
[V:4] G,2G,2G,4 | 
[V:1] c4A4 | 
[V:2] e4f4 | 
[V:3] c4d4- | 
[V:4] A,4F,4 | 
[V:1] B6B2 | 
[V:2] z2B2B3c | 
[V:3] d2d2d4 | 
[V:4] G,6G,2 | 
[V:1] A3GA2B2- | 
[V:2] d2f3ed2- | 
[V:3] z2d3cBA | 
[V:4] D,4F,2G,2 | 
[V:1] BAG4^F2 | 
[V:2] d2c2d4 | 
[V:3] G4A4 | 
[V:4] _E,4D,4 | 
[V:1] G8 | 
[V:2] z4B4 | 
[V:3] G8 | 
[V:4] z8 | 
[V:1] z4F4 | 
[V:2] c4d4 | 
[V:3] z8 | 
[V:4] z8 | 
[V:1] G4A4 | 
[V:2] B4c4 | 
[V:3] z8 | 
[V:4] z8 | 
[V:1] F4G4 | 
[V:2] d4z2B2 | 
[V:3] z8 | 
[V:4] z8 | 
[V:1] A2F2G2A2 | 
[V:2] c2d2_e2d2 | 
[V:3] z8 | 
[V:4] z8 | 
[V:1] B2A2F4 | 
[V:2] B2d3ef2- | 
[V:3] z8 | 
[V:4] z8 | 
[V:1] G4F2c2- | 
[V:2] f2e2f4 | 
[V:3] z8 | 
[V:4] z8 | 
[V:1] c2c2c2c2 | 
[V:2] c6c2 | 
[V:3] z8 | 
[V:4] z8 | 
[V:1] c2G4B2- | 
[V:2] c2c2c2G2 | 
[V:3] z8 | 
[V:4] z8 | 
[V:1] BAG4^F2 | 
[V:2] B3cA4 | 
[V:3] z8 | 
[V:4] z8 | 
[V:1] G4B4- | 
[V:2] G8 | 
[V:3] z8 | 
[V:4] z4G,4- | 
[V:1] B2B2B2B2 | 
[V:2] z8 | 
[V:3] d6d2 | 
[V:4] G,2G,2G,2G,2 | 
[V:1] B2FGABA2- | 
[V:2] z8 | 
[V:3] d2d2d2c2- | 
[V:4] G,2D,2F,4 | 
[V:1] A2G4^F2 | 
[V:2] z4d4- | 
[V:3] cBG2A4 | 
[V:4] _E,4D,4 | 
[V:1] G8 | 
[V:2] d2d2_e4 | 
[V:3] G8 | 
[V:4] z8 | 
[V:1] z4A4- | 
[V:2] d2f4_ed | 
[V:3] B4A4 | 
[V:4] z4D,4 | 
[V:1] A2A2B4 | 
[V:2] c4B4 | 
[V:3] A4GABG | 
[V:4] F,4G,4 | 
[V:1] A2c4BA | 
[V:2] z4c4 | 
[V:3] A4F4 | 
[V:4] F,2A,4G,F, | 
[V:1] G4F4 | 
[V:2] c4d4 | 
[V:3] G4A2d2 | 
[V:4] E,4D,4 | 
[V:1] z2G2G4 | 
[V:2] B4c4- | 
[V:3] d4e4 | 
[V:4] G,4C,4 | 
[V:1] A4z2A2 | 
[V:2] c2c2d4 | 
[V:3] z2c2fedc | 
[V:4] F,4z2D,2 | 
[V:1] B2G2ABcA | 
[V:2] B2c2A4 | 
[V:3] d2_e2c4 | 
[V:4] G,2C,2F,G,A,F, | 
[V:1] B2dcBAB2- | 
[V:2] G8 | 
[V:3] B4d4- | 
[V:4] G,2B,A,G,F,G,2- | 
[V:1] BAG4^F2 | 
[V:2] B2c2A4 | 
[V:3] d2_e2d4 | 
[V:4] G,2C,2D,4 | 
[V:1] G8- | 
[V:2] G8- | 
[V:3] z4d4- | 
[V:4] G,,8 | 
[V:1] G8 | 
[V:2] G8 | 
[V:3] d2_e2d4 | 
[V:4] z4G,,4 | 
[V:1] z8 | 
[V:2] z4G4 | 
[V:3] z8 | 
[V:4] G,4z2G,2 | 
[V:1] z8 | 
[V:2] d4z2d2 | 
[V:3] z8 | 
[V:4] G,2D,2G,4 | 
[V:1] z8 | 
[V:2] d2A2d4 | 
[V:3] z8 | 
[V:4] F,3E,D,C,B,,2 | 
[V:1] z8 | 
[V:2] c2FGABc2- | 
[V:3] z8 | 
[V:4] F,6E,2 | 
[V:1] z8 | 
[V:2] c2B4A2 | 
[V:3] z8 | 
[V:4] D,3B,,C,2C,2 | 
[V:1] z4A4 | 
[V:2] B2B2c4 | 
[V:3] z4z2f2 | 
[V:4] B,,4F,4 | 
[V:1] B4A4 | 
[V:2] B4z2d2- | 
[V:3] d3ef4 | 
[V:4] G,4F,4 | 
[V:1] B3BB2A2- | 
[V:2] d2d2d2d2 | 
[V:3] z2B4f2 | 
[V:4] G,6F,2 | 
[V:1] AGG4^F2 | 
[V:2] B2c2A4 | 
[V:3] d2e2d4- | 
[V:4] G,2C,2D,2D,2 | 
[V:1] G4B4- | 
[V:2] G4z2d2- | 
[V:3] d2d2d4 | 
[V:4] G,,8 | 
[V:1] B2B2B2A2- | 
[V:2] d2d2d2d2 | 
[V:3] z2B4f2 | 
[V:4] G,6F,2 | 
[V:1] AGG4^F2 | 
[V:2] B2c2A4 | 
[V:3] d2e2d4- | 
[V:4] G,2C,2D,2D,2 | 
[V:1] G2d2B2d2- | 
[V:2] G8- | 
[V:3] d2d2d3c | 
[V:4] G,,8- | 
[V:1] dcB4AG | 
[V:2] G8 | 
[V:3] BAG4FE | 
[V:4] G,,8 | 
[V:1] F8- | 
[V:2] A6A2 | 
[V:3] D8 | 
[V:4] z8 | 
[V:1] F8- | 
[V:2] A4A4 | 
[V:3] z8 | 
[V:4] D,6D,2 | 
[V:1] F8 | 
[V:2] F3GA4 | 
[V:3] d6d2 | 
[V:4] D,4D,4 | 
[V:1] z8 | 
[V:2] B4A4 | 
[V:3] d4d4 | 
[V:4] B,,3C,D,4 | 
[V:1] z8 | 
[V:2] G4F4 | 
[V:3] B3cd4 | 
[V:4] _E,4D,4 | 
[V:1] z8 | 
[V:2] z4B4 | 
[V:3] _e4d4 | 
[V:4] C,4B,,4 | 
[V:1] z8 | 
[V:2] A2F2G4 | 
[V:3] c4B4 | 
[V:4] z4_E,4 | 
[V:1] z8 | 
[V:2] F4z4 | 
[V:3] z4_e4 | 
[V:4] D,2B,,2C,4 | 
[V:1] z8 | 
[V:2] B4A2F2 | 
[V:3] d2B2c4 | 
[V:4] B,,4z4 | 
[V:1] z8 | 
[V:2] G4F4 | 
[V:3] B4A4 | 
[V:4] G,,4D,4 | 
[V:1] z8 | 
[V:2] F4G4 | 
[V:3] B4B4 | 
[V:4] D,4E,4 | 
[V:1] z8 | 
[V:2] E4F4 | 
[V:3] c4A4 | 
[V:4] C,4D,4 | 
[V:1] z8 | 
[V:2] D4d4 | 
[V:3] B4B4- | 
[V:4] B,,6G,,2 | 
[V:1] z8 | 
[V:2] d6B2 | 
[V:3] B2G2G4 | 
[V:4] G,,8- | 
[V:1] z8 | 
[V:2] B8 | 
[V:3] z4G4 | 
[V:4] G,,8 | 
[V:1] z4G4 | 
[V:2] z8 | 
[V:3] g4z2g2- | 
[V:4] z8 | 
[V:1] d4d2d2- | 
[V:2] z8 | 
[V:3] g2g2g4 | 
[V:4] z8 | 
[V:1] d2d2d4 | 
[V:2] z8 | 
[V:3] f6d2 | 
[V:4] z8 | 
[V:1] c2A2B2c2 | 
[V:2] z8 | 
[V:3] e2f2g2e2 | 
[V:4] z8 | 
[V:1] d2B2A2F2 | 
[V:2] z8 | 
[V:3] d4z2d2 | 
[V:4] z4D,4 | 
[V:1] G4F4 | 
[V:2] G4A4 | 
[V:3] B3cd4 | 
[V:4] _E,4D,4 | 
[V:1] d3cB2A2- | 
[V:2] D2d4c2 | 
[V:3] f6e2 | 
[V:4] B,,6C,2 | 
[V:1] A2G4^F2 | 
[V:2] B2G2A2A2 | 
[V:3] d2c2d4- | 
[V:4] D,2_E,2D,2D,2 | 
[V:1] G4d4- | 
[V:2] G8 | 
[V:3] d2d2d4 | 
[V:4] G,,8 | 
[V:1] d2c2B2A2- | 
[V:2] d6c2 | 
[V:3] z2f4e2 | 
[V:4] B,,6C,2 | 
[V:1] A2G4^F2 | 
[V:2] B2G2A2A2 | 
[V:3] d2c2d4- | 
[V:4] D,2_E,2D,2D,2 | 
[V:1] G4z4 | 
[V:2] G8- | 
[V:3] d2d2d4 | 
[V:4] G,,8- | 
[V:1] D4G4 | 
[V:2] G8 | 
[V:3] z2B4B2 | 
[V:4] G,,8 | 
[V:1] G2G2G2G2 | 
[V:2] z8 | 
[V:3] c2B2c2G2 | 
[V:4] z8 | 
[V:1] F4B4 | 
[V:2] d4g4 | 
[V:3] B6G2 | 
[V:4] z8 | 
[V:1] B2B2B4 | 
[V:2] g2g2g2g2 | 
[V:3] G8 | 
[V:4] z8 | 
[V:1] A2F2G2B2- | 
[V:2] f4B4 | 
[V:3] z4G4 | 
[V:4] D,4G,4 | 
[V:1] BAGFG4 | 
[V:2] B2B2B4 | 
[V:3] d4d2d2 | 
[V:4] G,2G,2G,2G,2 | 
[V:1] A4z4 | 
[V:2] A2F2G2A2- | 
[V:3] d3dc2d2 | 
[V:4] F,2D,2E,2F,2- | 
[V:1] z8 | 
[V:2] AGFED4 | 
[V:3] c2d3cB2- | 
[V:4] F,E,D,C,B,,2D,2 | 
[V:1] z8 | 
[V:2] E4F4 | 
[V:3] B2A2B4 | 
[V:4] C,4B,,4 | 
[V:1] z8 | 
[V:2] z2D2D2E2 | 
[V:3] z2F2G2A2 | 
[V:4] z2B,,2B,,2C,2 | 
[V:1] z8 | 
[V:2] F3ED2C2 | 
[V:3] B3AG2^F2 | 
[V:4] D,3C,B,,2A,,2 | 
[V:1] z2G2G2A2 | 
[V:2] D2d2d2e2 | 
[V:3] G2G2B2c2 | 
[V:4] G,,4z4 | 
[V:1] B3AG2^F2 | 
[V:2] f3ed2c2 | 
[V:3] d3cB2A2 | 
[V:4] z8 | 
[V:1] G4z4 | 
[V:2] d4z2d2- | 
[V:3] G8 | 
[V:4] z8 | 
[V:1] B4B4 | 
[V:2] d2d2d2e2 | 
[V:3] z2G4G2 | 
[V:4] G,,4G,4 | 
[V:1] A2F2G4 | 
[V:2] f4B4 | 
[V:3] A2B2G4 | 
[V:4] F,2D,2_E,4 | 
[V:1] F2D2G4 | 
[V:2] z2d2B2c2 | 
[V:3] A2B2G2_E2 | 
[V:4] D,2B,,2_E,4 | 
[V:1] F2D2_E4 | 
[V:2] d4G3A | 
[V:3] F3G_E4 | 
[V:4] D,2B,,2C,4 | 
[V:1] D2D2_E4 | 
[V:2] B2B2c4 | 
[V:3] F2G2G4 | 
[V:4] B,,2G,,2C,4 | 
[V:1] D2D2_E2E2 | 
[V:2] d2B2c2G2 | 
[V:3] G2G2G2G2 | 
[V:4] B,,2G,,2C,4 | 
[V:1] D2G3^FFE | 
[V:2] B4A4 | 
[V:3] G4D4 | 
[V:4] B,,2G,,2D,4 | 
[V:1] G4z2G2 | 
[V:2] B8 | 
[V:3] d4z4 | 
[V:4] G,,8 | 
[V:1] A2A2B4- | 
[V:2] z8 | 
[V:3] d4d2d2 | 
[V:4] z8 | 
[V:1] B2B2B2c2- | 
[V:2] z8 | 
[V:3] _e6_e2 | 
[V:4] z8 | 
[V:1] c2B4A2 | 
[V:2] z8 | 
[V:3] d2B2c4 | 
[V:4] z8 | 
[V:1] B8 | 
[V:2] z4G4 | 
[V:3] B8 | 
[V:4] G,,4G,,2G,,2 | 
[V:1] z8 | 
[V:2] G2G2G2E2 | 
[V:3] z8 | 
[V:4] C,6C,2 | 
[V:1] z8 | 
[V:2] F2G2E3F | 
[V:3] z8 | 
[V:4] B,,2G,,2A,,4 | 
[V:1] z2d2d3d | 
[V:2] G8 | 
[V:3] z4d2g2- | 
[V:4] G,,8 | 
[V:1] B2G2c3B | 
[V:2] z8 | 
[V:3] gge2c2f2- | 
[V:4] z8 | 
[V:1] AGA4B2- | 
[V:2] z8 | 
[V:3] fedcd2G2 | 
[V:4] z8 | 
[V:1] BAG4^F2 | 
[V:2] z8 | 
[V:3] B2c2A4 | 
[V:4] z8 | 
[V:1] G8 | 
[V:2] z2d2d3d | 
[V:3] G8 | 
[V:4] z4G,,2G,2- | 
[V:1] z8 | 
[V:2] B2G2c3B | 
[V:3] z8 | 
[V:4] G,G,E,2C,2F,2- | 
[V:1] z8 | 
[V:2] AGA4B2- | 
[V:3] z8 | 
[V:4] F,E,D,C,D,2G,,2 | 
[V:1] z8 | 
[V:2] BAG4^F2 | 
[V:3] z8 | 
[V:4] B,,2C,2A,,4 | 
[V:1] G4G2G2 | 
[V:2] G8 | 
[V:3] z8 | 
[V:4] G,,8- | 
[V:1] B2G2B3c | 
[V:2] z8 | 
[V:3] G4G2G2 | 
[V:4] G,,8 | 
[V:1] d8 | 
[V:2] G4G2G2 | 
[V:3] B2G2B3c | 
[V:4] z8 | 
[V:1] z8 | 
[V:2] B2G2B3c | 
[V:3] d8 | 
[V:4] G,,4G,,2G,,2 | 
[V:1] z8 | 
[V:2] d2d2d2_e2 | 
[V:3] z8 | 
[V:4] B,,2G,,2B,,2C,2 | 
[V:1] z8 | 
[V:2] d2B4c2- | 
[V:3] z8 | 
[V:4] D,2D,2D,2_E,2 | 
[V:1] z4z2c2 | 
[V:2] cBB4A2 | 
[V:3] z8 | 
[V:4] D,2B,,2C,4 | 
[V:1] d2d2B2c2- | 
[V:2] B2B2d2c2 | 
[V:3] z2d2d2_e2 | 
[V:4] B,,2B,2B,2A,2 | 
[V:1] c2B4A2 | 
[V:2] d2e2f4 | 
[V:3] d2B2c4 | 
[V:4] B,2G,2F,4 | 
[V:1] B8 | 
[V:2] d8- | 
[V:3] B4z2B2 | 
[V:4] B,,8 | 
[V:1] z8 | 
[V:2] d8 | 
[V:3] B2B2A2A2 | 
[V:4] z2D,2D,2D,2 | 
[V:1] z4z2B2 | 
[V:2] z8 | 
[V:3] F3DD4 | 
[V:4] D,2D,2B,,3G,, | 
[V:1] B2B2A2A2 | 
[V:2] z2d2d2d2 | 
[V:3] z8 | 
[V:4] G,,4z4 | 
[V:1] F3DD4 | 
[V:2] d2d2B3G | 
[V:3] z8 | 
[V:4] z8 | 
[V:1] G2B2G2d2- | 
[V:2] G4z4 | 
[V:3] z2G2B2G2 | 
[V:4] z8 | 
[V:1] dcBAB2cB | 
[V:2] z8 | 
[V:3] g3fedc2- | 
[V:4] z8 | 
[V:1] AGG4^F2 | 
[V:2] z8 | 
[V:3] cBG2A4 | 
[V:4] z8 | 
[V:1] G4z4 | 
[V:2] G2B2G2d2- | 
[V:3] G4z4 | 
[V:4] z2G,,2B,,2G,,2 | 
[V:1] z8 | 
[V:2] dcBAB2cB | 
[V:3] z8 | 
[V:4] G,3F,E,D,C,2- | 
[V:1] z8 | 
[V:2] AGG4^F2 | 
[V:3] z8 | 
[V:4] C,B,,G,,2A,,4 | 
[V:1] z2G2B2G2 | 
[V:2] G4z2G2 | 
[V:3] z4G2B2 | 
[V:4] G,,8 | 
[V:1] d3cBAG2- | 
[V:2] B2G2d4 | 
[V:3] G2d3cBA | 
[V:4] z4G,,4 | 
[V:1] GFD2_E4 | 
[V:2] c2d2G3A | 
[V:3] G2G2_E3F | 
[V:4] C,2B,,2C,4 | 
[V:1] D8 ||  
[V:2] B8 ||  
[V:3] G8 ||  
[V:4] G,,8 ||  
[V:1] z8 | 
[V:2] z8 | 
[V:3] z8 | 
[V:4] B,,4C,4 | 
[V:1] z8 | 
[V:2] z4B4 | 
[V:3] F4G4 | 
[V:4] D,4G,,4 | 
[V:1] z4F4 | 
[V:2] c4d4 | 
[V:3] A4B4 | 
[V:4] z4z2D,2 | 
[V:1] G4A4 | 
[V:2] G4z2c2 | 
[V:3] z8 | 
[V:4] E,2G,2F,4 | 
[V:1] B4F4 | 
[V:2] d2d2d4 | 
[V:3] z4B4 | 
[V:4] B,,4z2D,2 | 
[V:1] G2G2A4 | 
[V:2] G4z4 | 
[V:3] B2B2c4 | 
[V:4] E,2G,2F,4 | 
[V:1] B8 | 
[V:2] z4G4- | 
[V:3] B8 | 
[V:4] B,,4_E,4- | 
[V:1] z8 | 
[V:2] G2G2G2G2 | 
[V:3] B6B2 | 
[V:4] E,2_E,2E,2E,2 | 
[V:1] z8 | 
[V:2] F2D2E2F2 | 
[V:3] B2B2A2F2 | 
[V:4] D,2B,,2C,2D,2 | 
[V:1] z8 | 
[V:2] D2F2E2F2- | 
[V:3] G2A2B2B2 | 
[V:4] G,,2D,2G,,2D,2- | 
[V:1] z8 | 
[V:2] FED4C2 | 
[V:3] A2G2^F4 | 
[V:4] D,C,B,,2A,,4 | 
[V:1] z4B4 | 
[V:2] D4z2d2 | 
[V:3] G8 | 
[V:4] G,,4z2G,,2 | 
[V:1] B2A2B4 | 
[V:2] d2d2d3e | 
[V:3] z8 | 
[V:4] G,2F,2G,4 | 
[V:1] A8 | 
[V:2] f3edcd2- | 
[V:3] z8 | 
[V:4] D,8 | 
[V:1] z8 | 
[V:2] d2cBA4 | 
[V:3] F6G2 | 
[V:4] D,6E,2 | 
[V:1] z8 | 
[V:2] D4d4 | 
[V:3] A4B4 | 
[V:4] F,4B,,2D,2 | 
[V:1] z8 | 
[V:2] z8 | 
[V:3] G2A2B2G2 | 
[V:4] E,2F,2D,2E,2 | 
[V:1] z8 | 
[V:2] z8 | 
[V:3] A2B2G2A2 | 
[V:4] F,2D,2E,2F,2 | 
[V:1] z8 | 
[V:2] z8 | 
[V:3] B2G2A2B2 | 
[V:4] D,2E,2F,2D,2 | 
[V:1] z8 | 
[V:2] z8 | 
[V:3] G4A4 | 
[V:4] E,3G,F,4 | 
[V:1] z4F4- | 
[V:2] z4d4- | 
[V:3] B8 | 
[V:4] B,,8 | 
[V:1] F2G2A4 | 
[V:2] d2e2f4 | 
[V:3] z8 | 
[V:4] z8 | 
[V:1] B4G2A2 | 
[V:2] B2d2e2f2 | 
[V:3] z8 | 
[V:4] z8 | 
[V:1] B2G2A2B2 | 
[V:2] d2e2f2d2 | 
[V:3] z8 | 
[V:4] z8 | 
[V:1] G2A2B2G2 | 
[V:2] e2f2d2e2 | 
[V:3] z8 | 
[V:4] z8 | 
[V:1] A2B2G4 | 
[V:2] f2d2e4 | 
[V:3] z8 | 
[V:4] z8 | 
[V:1] A4B4 | 
[V:2] f4z4 | 
[V:3] z4d4 | 
[V:4] z8 | 
[V:1] B2B2B2B2 | 
[V:2] z4f4 | 
[V:3] d2d2d2d2 | 
[V:4] B,,4B,,2B,,2 | 
[V:1] A2A2F2F2 | 
[V:2] f2f2f3f | 
[V:3] c2A2B2F2 | 
[V:4] F,4D,4 | 
[V:1] G8 | 
[V:2] e4c2c2 | 
[V:3] z2c3BG2 | 
[V:4] C,4_E,4 | 
[V:1] z4F4 | 
[V:2] d8 | 
[V:3] B3cA4 | 
[V:4] D,6D,2 | 
[V:1] G4B4 | 
[V:2] z4B4 | 
[V:3] G8 | 
[V:4] G,,8 | 
[V:1] A2c3BAG | 
[V:2] c4_e4 | 
[V:3] z8 | 
[V:4] z8 | 
[V:1] FGABc2d2- | 
[V:2] d2f3_edc | 
[V:3] z8 | 
[V:4] z8 | 
[V:1] dcB4A2 | 
[V:2] B2d2c4 | 
[V:3] z8 | 
[V:4] z8 | 
[V:1] B2F2G2A2 | 
[V:2] B4z2c2 | 
[V:3] z8 | 
[V:4] z8 | 
[V:1] B4A4 | 
[V:2] d2e2f4 | 
[V:3] z8 | 
[V:4] z8 | 
[V:1] c4B2A2- | 
[V:2] e4d4 | 
[V:3] z8 | 
[V:4] z8 | 
[V:1] A2G4^F2 | 
[V:2] c2B2A4 | 
[V:3] z4c4 | 
[V:4] z8 | 
[V:1] G8 | 
[V:2] G8 | 
[V:3] d4e4 | 
[V:4] z4C,4 | 
[V:1] z8 | 
[V:2] F4G4 | 
[V:3] f4z4 | 
[V:4] D,4E,4 | 
[V:1] z8 | 
[V:2] A4A4 | 
[V:3] c4c4 | 
[V:4] F,4F,4 | 
[V:1] z8 | 
[V:2] A2A2B4- | 
[V:3] d6d2 | 
[V:4] F,4G,4- | 
[V:1] z8 | 
[V:2] B2B2c4 | 
[V:3] e4z4 | 
[V:4] G,2G,2A,4 | 
[V:1] z8 | 
[V:2] z4A4 | 
[V:3] c4d4 | 
[V:4] z4F,4 | 
[V:1] z8 | 
[V:2] B4B4 | 
[V:3] d4e4- | 
[V:4] G,4G,4 | 
[V:1] z8 | 
[V:2] c4c4 | 
[V:3] e4f4- | 
[V:4] A,4A,4 | 
[V:1] z8 | 
[V:2] d6c2 | 
[V:3] f4f4 | 
[V:4] B,6A,2 | 
[V:1] z8 | 
[V:2] B2A2G4 | 
[V:3] e2d2^c4 | 
[V:4] G,2F,2E,4 | 
[V:1] z4A4 | 
[V:2] A8 | 
[V:3] d8 | 
[V:4] D,8- | 
[V:1] B4A4 | 
[V:2] z8 | 
[V:3] z4d4 | 
[V:4] D,8 | 
[V:1] G4z2F2 | 
[V:2] z8 | 
[V:3] e4d4 | 
[V:4] z8 | 
[V:1] G2A2B4 | 
[V:2] z8 | 
[V:3] c4z2B2 | 
[V:4] z8 | 
[V:1] A8 | 
[V:2] z4A4 | 
[V:3] c2d2c4 | 
[V:4] z8 | 
[V:1] F6F2 | 
[V:2] B4A4 | 
[V:3] d4d4 | 
[V:4] z4D,4 | 
[V:1] G4F4 | 
[V:2] G4z2F2 | 
[V:3] B8 | 
[V:4] _E,4D,4 | 
[V:1] z4z2D2 | 
[V:2] G2A2B4 | 
[V:3] c4d4 | 
[V:4] C,4z2B,,2 | 
[V:1] E2F2G4 | 
[V:2] A4G4 | 
[V:3] z2d2B2G2 | 
[V:4] C,2D,2_E,4 | 
[V:1] F4E4 | 
[V:2] z2F2G4 | 
[V:3] A3Bc4 | 
[V:4] D,4C,4 | 
[V:1] z2D2E4 | 
[V:2] B4A4 | 
[V:3] d4z2c2 | 
[V:4] z2B,,2C,4 | 
[V:1] G4F2A2 | 
[V:2] z4z2F2 | 
[V:3] B2G2A2D2 | 
[V:4] _E,4D,4 | 
[V:1] B2A2F2G2- | 
[V:2] G2A2B2G2 | 
[V:3] G2F2D2E2 | 
[V:4] z8 | 
[V:1] G^FFEG4 | 
[V:2] A4G4 | 
[V:3] D4d4 | 
[V:4] z4z2B,,2 | 
[V:1] z2A2B2A2 | 
[V:2] z2F2G2A2 | 
[V:3] z4d2d2- | 
[V:4] C,2D,2G,,2D,2- | 
[V:1] F2G4^F2 | 
[V:2] B2G2A4 | 
[V:3] ddc2d4 | 
[V:4] D,B,,_E,2D,4 | 
[V:1] G4z4 | 
[V:2] G4z4 | 
[V:3] B8 | 
[V:4] G,,8 | 
[V:1] A4A2A2 | 
[V:2] f4f2f2 | 
[V:3] z8 | 
[V:4] z8 | 
[V:1] B2A2B4 | 
[V:2] g2f2g4 | 
[V:3] z8 | 
[V:4] z8 | 
[V:1] A8 | 
[V:2] f6d2 | 
[V:3] A4A2A2 | 
[V:4] D,4D,2D,2 | 
[V:1] z8 | 
[V:2] d4z4 | 
[V:3] B2A2B4 | 
[V:4] G,2F,2G,4 | 
[V:1] A4B4 | 
[V:2] f4g4 | 
[V:3] A4z4 | 
[V:4] D,4z4 | 
[V:1] A2A2B4 | 
[V:2] f2f2g4 | 
[V:3] z8 | 
[V:4] z8 | 
[V:1] A4z4 | 
[V:2] f3dd4 | 
[V:3] A4B4 | 
[V:4] D,4G,4 | 
[V:1] z8 | 
[V:2] z8 | 
[V:3] A2A2B4 | 
[V:4] F,2F,2G,4 | 
[V:1] z4A4 | 
[V:2] z4f4 | 
[V:3] A8 | 
[V:4] D,8 | 
[V:1] B4A4 | 
[V:2] g4f4 | 
[V:3] z8 | 
[V:4] z8 | 
[V:1] z2A2A2A2 | 
[V:2] z2f2f2f2 | 
[V:3] z8 | 
[V:4] z8 | 
[V:1] G2F2E4 | 
[V:2] e2d2^c4 | 
[V:3] z4A4 | 
[V:4] z8 | 
[V:1] D4B4 | 
[V:2] d4z2d2 | 
[V:3] D4G4 | 
[V:4] z4G,,4 | 
[V:1] c4B4 | 
[V:2] _e4d4 | 
[V:3] z2G2G2G2 | 
[V:4] C,4G,,4 | 
[V:1] z2B2B2B2 | 
[V:2] z2d2d2d2 | 
[V:3] B3cdef2- | 
[V:4] z2G,2B,3B, | 
[V:1] A2G2^F4 | 
[V:2] c2B2A4 | 
[V:3] f2d3cd2 | 
[V:4] F,2G,2D,4 | 
[V:1] G8 | 
[V:2] G8 | 
[V:3] B2G2B4 | 
[V:4] G,,8 | 
[V:1] z4F4 | 
[V:2] z8 | 
[V:3] A4z2d2 | 
[V:4] D,4D,2D,2 | 
[V:1] F2F2F2A2- | 
[V:2] A4A2A2 | 
[V:3] d2d2d2f2- | 
[V:4] D,4D,4 | 
[V:1] A2GFE4 | 
[V:2] A4A4 | 
[V:3] f2edc4 | 
[V:4] z8 | 
[V:1] z8 | 
[V:2] z4A4 | 
[V:3] z8 | 
[V:4] D,4D,4 | 
[V:1] z8 | 
[V:2] A4G2G2 | 
[V:3] z8 | 
[V:4] C,2D,2_E,4- | 
[V:1] z4z2A2 | 
[V:2] B6A2 | 
[V:3] z2d2d4 | 
[V:4] E,2D,2D,4 | 
[V:1] A4G2G2 | 
[V:2] A4z4 | 
[V:3] c2d2_e4- | 
[V:4] z8 | 
[V:1] B6A2 | 
[V:2] z8 | 
[V:3] e2d2d4 | 
[V:4] z8 | 
[V:1] A4z4 | 
[V:2] z4A4 | 
[V:3] z8 | 
[V:4] D,4D,2C,2 | 
[V:1] z8 | 
[V:2] A4G2G2 | 
[V:3] z8 | 
[V:4] D,4_E,4 | 
[V:1] z4z2A2 | 
[V:2] B4A4 | 
[V:3] d4d2d2 | 
[V:4] D,8 | 
[V:1] A2A2G4 | 
[V:2] z8 | 
[V:3] c4_e4 | 
[V:4] z8 | 
[V:1] B4A4 | 
[V:2] z4z2D2 | 
[V:3] d8 | 
[V:4] z8 | 
[V:1] z8 | 
[V:2] D2D2F3D | 
[V:3] z4z2d2 | 
[V:4] z2D,2D,2D,2 | 
[V:1] z4z2F2 | 
[V:2] D4z2D2 | 
[V:3] d2d2f4 | 
[V:4] F,3E,D,2D,2 | 
[V:1] G4A4 | 
[V:2] E2G4F2 | 
[V:3] e2d2c4 | 
[V:4] C,2B,,2A,,4 | 
[V:1] B6A2 | 
[V:2] GABcdef2 | 
[V:3] B3AG2F2 | 
[V:4] z8 | 
[V:1] G2F2E4 | 
[V:2] e2d4^c2 | 
[V:3] c2d2A4 | 
[V:4] z8 | 
[V:1] z2F4F2 | 
[V:2] d8 | 
[V:3] z2A2A2B2- | 
[V:4] D,6D,2 | 
[V:1] G4F4 | 
[V:2] z8 | 
[V:3] B2AGA4 | 
[V:4] G,,4D,4 | 
[V:1] z2A2A2B2- | 
[V:2] d6d2 | 
[V:3] z8 | 
[V:4] z8 | 
[V:1] B2AGA4 | 
[V:2] G4d4 | 
[V:3] z8 | 
[V:4] z8 | 
[V:1] z2F2G4 | 
[V:2] z2d2d4 | 
[V:3] A4B4 | 
[V:4] D,4G,4 | 
[V:1] A2F2G4- | 
[V:2] d2d2e4- | 
[V:3] A2A2B4- | 
[V:4] F,2D,2G,4- | 
[V:1] G2F2F4 | 
[V:2] e2d2d4 | 
[V:3] B2A2A4 | 
[V:4] G,2D,2D,4 | 
[V:1] z8 | 
[V:2] z2d2f2e2 | 
[V:3] z8 | 
[V:4] z2B,2A,2G,2- | 
[V:1] z8 | 
[V:2] d4^c4 | 
[V:3] z8 | 
[V:4] G,F,D,2E,4 | 
[V:1] z2A2c2B2 | 
[V:2] d4z4 | 
[V:3] z2f2e2d2- | 
[V:4] D,4z4 | 
[V:1] A4G4 | 
[V:2] z8 | 
[V:3] dcA2B4 | 
[V:4] z8 | 
[V:1] A2F2G2E2 | 
[V:2] z2d2B2c2 | 
[V:3] A2A2G2A2 | 
[V:4] z2D,2_E,2C,2 | 
[V:1] F2D2E2F2 | 
[V:2] A2B2G2F2 | 
[V:3] F2G2E2D2 | 
[V:4] D,2B,,2C,2D,2 | 
[V:1] G2F2G2E2 | 
[V:2] B2A2G2A2 | 
[V:3] d2d2B2c2 | 
[V:4] G,,2D,2_E,2C,2 | 
[V:1] F2D2E2F2 | 
[V:2] F2G2E2D2 | 
[V:3] A2B2G2F2 | 
[V:4] D,2B,,2C,2D,2 | 
[V:1] G8 | 
[V:2] d4z2g2 | 
[V:3] B3GG4 | 
[V:4] G,,8 | 
[V:1] z2d2d2c2 | 
[V:2] g2f2g2e2 | 
[V:3] z8 | 
[V:4] z8 | 
[V:1] d2B2A4 | 
[V:2] d8 | 
[V:3] z8 | 
[V:4] z4z2D,2 | 
[V:1] z8 | 
[V:2] z8 | 
[V:3] z2d2d2c2 | 
[V:4] G,2F,2G,2E,2 | 
[V:1] z8 | 
[V:2] z2f2f2f2 | 
[V:3] d2B2A4 | 
[V:4] D,8 | 
[V:1] z2B2B2B2 | 
[V:2] g3fe2d2 | 
[V:3] z8 | 
[V:4] z2G,2G,2G,2 | 
[V:1] c3BA2G2 | 
[V:2] c4z4 | 
[V:3] z2c2c2c2 | 
[V:4] A,3G,F,2E,2 | 
[V:1] F8 | 
[V:2] z8 | 
[V:3] d3cB2A2 | 
[V:4] D,8 | 
[V:1] z8 | 
[V:2] z8 | 
[V:3] G2G2G2G2 | 
[V:4] z2G,,2C,2B,,2 | 
[V:1] z8 | 
[V:2] z8 | 
[V:3] E4F4 | 
[V:4] C,4A,,4 | 
[V:1] z2G2G2G2 | 
[V:2] z2B2B2B2 | 
[V:3] G8 | 
[V:4] G,,8 | 
[V:1] E4F4 | 
[V:2] c4A4 | 
[V:3] z8 | 
[V:4] z8 | 
[V:1] G4z4 | 
[V:2] G2B2B2c2 | 
[V:3] z2d2e2f2 | 
[V:4] z2G,2G,2A,2 | 
[V:1] z8 | 
[V:2] d6c2 | 
[V:3] g6f2 | 
[V:4] B,6A,2 | 
[V:1] z8 | 
[V:2] B2A2G4 | 
[V:3] e2d2^c4 | 
[V:4] G,2F,2E,4 | 
[V:1] z2A2B2c2 | 
[V:2] A4z4 | 
[V:3] z2d2d2e2 | 
[V:4] D,4z4 | 
[V:1] d6c2 | 
[V:2] z4z2A2 | 
[V:3] f6e2 | 
[V:4] z8 | 
[V:1] B2A2G4 | 
[V:2] B2c2d4- | 
[V:3] d2c2B4 | 
[V:4] z2A,,2B,,2G,,2 | 
[V:1] F4z2E2 | 
[V:2] d2cBA2c2 | 
[V:3] A8- | 
[V:4] D,6A,,2 | 
[V:1] F2E2D4 | 
[V:2] d2e2f4 | 
[V:3] A8- | 
[V:4] D,2C,2D,4 | 
[V:1] C8 ||  
[V:2] e8 ||  
[V:3] A8 ||  
[V:4] A,,8 ||  
[V:1] z8 | 
[V:2] z8 | 
[V:3] z8 | 
[V:4] D,4D,2D,2 | 
[V:1] z8 | 
[V:2] d4d2d2 | 
[V:3] z8 | 
[V:4] G,,4D,4 | 
[V:1] z8 | 
[V:2] G4d4- | 
[V:3] z8 | 
[V:4] E,4D,2F,2- | 
[V:1] z8 | 
[V:2] d4e4 | 
[V:3] z8 | 
[V:4] F,2E,D,C,4 | 
[V:1] z8 | 
[V:2] d2f4ed | 
[V:3] z8 | 
[V:4] B,,8 | 
[V:1] z8 | 
[V:2] c4B4 | 
[V:3] z8 | 
[V:4] z2F,2G,2B,2- | 
[V:1] z8 | 
[V:2] z4c4 | 
[V:3] z8 | 
[V:4] B,2A,G,A,2F,2- | 
[V:1] z8 | 
[V:2] c2c2c4 | 
[V:3] z8 | 
[V:4] F,2E,D,E,2C,D, | 
[V:1] z8 | 
[V:2] G4B4 | 
[V:3] z8 | 
[V:4] E,F,G,2G,,2G,2- | 
[V:1] z8 | 
[V:2] A4G4 | 
[V:3] z8 | 
[V:4] G,2F,2G,2B,2 | 
[V:1] z8 | 
[V:2] c4c2c2 | 
[V:3] z8 | 
[V:4] A,2F,4E,D, | 
[V:1] z8 | 
[V:2] c4G3A | 
[V:3] z8 | 
[V:4] E,2C,D,E,F,G,2 | 
[V:1] z8 | 
[V:2] Bcd4cB | 
[V:3] z8 | 
[V:4] G,,A,,B,,C,D,2E,2 | 
[V:1] z8 | 
[V:2] A2G2A4 | 
[V:3] z8 | 
[V:4] F,2G,4^F,2 | 
[V:1] [M:3/1]z12 | 
[V:2] [M:3/1]G12 | 
[V:3] [M:3/1]z12 | 
[V:4] [M:3/1]G,8z4 | 
[V:1] z12 | 
[V:2] z4z4G4 | 
[V:3] [M:3/1]B4B4c4 | 
[V:4] G,4G,4E,4 | 
[V:1] z12 | 
[V:2] A4B8 | 
[V:3] d4d6d2 | 
[V:4] D,4G,6G,2 | 
[V:1] z12 | 
[V:2] A4z4G4 | 
[V:3] d4e4c4 | 
[V:4] F,4G,4E,4 | 
[V:1] [M:3/1]F4F4G4 | 
[V:2] A4B8 | 
[V:3] d8z4 | 
[V:4] D,8z4 | 
[V:1] A4B6B2 | 
[V:2] A4d6d2 | 
[V:3] z12 | 
[V:4] z12 | 
[V:1] A4B4G4 | 
[V:2] c4d4B4 | 
[V:3] z12 | 
[V:4] z12 | 
[V:1] A8A4 | 
[V:2] A8d4 | 
[V:3] z4z4f4 | 
[V:4] z4z4D,4 | 
[V:1] A4B8 | 
[V:2] d4d8 | 
[V:3] f4g8 | 
[V:4] D,4G,8 | 
[V:1] A4B6B2 | 
[V:2] d4B6B2 | 
[V:3] f4d6d2 | 
[V:4] D,4G,6G,2 | 
[V:1] A4G8 | 
[V:2] c4c8 | 
[V:3] f4e8 | 
[V:4] F,4C,8 | 
[V:1] F8z4 | 
[V:2] A8z4 | 
[V:3] d8z4 | 
[V:4] D,8z4 | 
[V:1] d4d4c4 | 
[V:2] B4B4G4 | 
[V:3] d4d4e4 | 
[V:4] B,,4B,,4C,4 | 
[V:1] A4d4c4 | 
[V:2] F4B4A4 | 
[V:3] f4d4e4 | 
[V:4] D,4B,,4C,4 | 
[V:1] A4B4G4 | 
[V:2] F4G4E4 | 
[V:3] f4d4e4 | 
[V:4] D,4G,,4G,4 | 
[V:1] A4B4G4 | 
[V:2] D4B4c4 | 
[V:3] f4d4e4 | 
[V:4] F,4G,4E,4 | 
[V:1] [M:2/1]F3GA4 | 
[V:2] [M:2/1]d8 | 
[V:3] [M:2/1]f8 | 
[V:4] [M:2/1]D,8 | 
[V:1] z8 | 
[V:2] B4B2B2 | 
[V:3] z8 | 
[V:4] z2G,,2G,,2G,2 | 
[V:1] z8 | 
[V:2] c4A4 | 
[V:3] z8 | 
[V:4] E,2C,2D,4- | 
[V:1] z8 | 
[V:2] B6G2 | 
[V:3] z8 | 
[V:4] D,2G,,2G,,4 | 
[V:1] B4B2B2 | 
[V:2] G8 | 
[V:3] z2d2g2g2 | 
[V:4] z8 | 
[V:1] c4A4 | 
[V:2] z8 | 
[V:3] e2c2d4- | 
[V:4] z8 | 
[V:1] B6G2 | 
[V:2] [M:3/3](3B4B6B2 | 
[V:3] d2G2G4 | 
[V:4] [M:3/3](3G,4G,6G,2 | 
[V:1] [M:3/1]G8z4 | 
[V:2] [M:3/1]B4c6c2 | 
[V:3] [M:3/1]z12 | 
[V:4] [M:3/1]G,4C,6C,2 | 
[V:1] z12 | 
[V:2] c4F4G4 | 
[V:3] z12 | 
[V:4] C,4D,4B,,4 | 
[V:1] c4c6c2 | 
[V:2] A8z4 | 
[V:3] e4e6e2 | 
[V:4] A,,8z4 | 
[V:1] c4A6A2 | 
[V:2] z12 | 
[V:3] e4f6f2 | 
[V:4] z12 | 
[V:1] A4B4G4 | 
[V:2] z12 | 
[V:3] f4g4e4 | 
[V:4] z12 | 
[V:1] A4F4G4 | 
[V:2] F8c4 | 
[V:3] f4d4e4 | 
[V:4] D,8C,4 | 
[V:1] A4F4G4 | 
[V:2] A4A4c4 | 
[V:3] c4d4e4 | 
[V:4] F,4D,4C,4 | 
[V:1] A4F6F2 | 
[V:2] A4B6B2 | 
[V:3] c4d6d2 | 
[V:4] F,4B,,6B,,2 | 
[V:1] F4E8 | 
[V:2] A4A8 | 
[V:3] d4^c8 | 
[V:4] D,4A,,8 | 
[V:1] D8z4 | 
[V:2] F8A4 | 
[V:3] d8z4 | 
[V:4] D,8z4 | 
[V:1] z12 | 
[V:2] A4B4G4 | 
[V:3] z12 | 
[V:4] D,4D,4_E,4 | 
[V:1] z12 | 
[V:2] A8F4 | 
[V:3] z12 | 
[V:4] C,4D,8 | 
[V:1] z12 | 
[V:2] G6G2A4 | 
[V:3] z12 | 
[V:4] B,,4C,6C,2 | 
[V:1] A6A2B4 | 
[V:2] z12 | 
[V:3] z4d4d4 | 
[V:4] D,8z4 | 
[V:1] G4A4F4 | 
[V:2] z12 | 
[V:3] _e4c4d4 | 
[V:4] z12 | 
[V:1] G6G2A4 | 
[V:2] z4z4A4 | 
[V:3] B4c6c2 | 
[V:4] z12 | 
[V:1] F4F4F4 | 
[V:2] A4A4B4- | 
[V:3] d4d4d4 | 
[V:4] D,4D,4D,4 | 
[V:1] G8E4 | 
[V:2] B4G4G4 | 
[V:3] B4B4c4 | 
[V:4] _E,8C,4 | 
[V:1] E4F6D2 | 
[V:2] A8D4 | 
[V:3] c4A8 | 
[V:4] C,4D,8 | 
[V:1] D8z4 | 
[V:2] z4d4d4 | 
[V:3] B8z4 | 
[V:4] G,,4z4G,4 | 
[V:1] z12 | 
[V:2] d8B4 | 
[V:3] z12 | 
[V:4] G,4G,8 | 
[V:1] z12 | 
[V:2] c6c2d4 | 
[V:3] z12 | 
[V:4] E,4F,6F,2 | 
[V:1] z4d4d4 | 
[V:2] z12 | 
[V:3] z4z4g4 | 
[V:4] G,8z4 | 
[V:1] d8B4 | 
[V:2] z12 | 
[V:3] g4g8 | 
[V:4] z12 | 
[V:1] c6c2d4 | 
[V:2] z4z4d4 | 
[V:3] e4f6f2 | 
[V:4] z12 | 
[V:1] z4z4B4 | 
[V:2] e4g6f2 | 
[V:3] g8z4 | 
[V:4] z4z4G,4 | 
[V:1] B4B8 | 
[V:2] e4d8 | 
[V:3] g4g4g4 | 
[V:4] G,4G,8 | 
[V:1] c8A4 | 
[V:2] c4c4c4 | 
[V:3] e8f4 | 
[V:4] A,8F,4 | 
[V:1] A4B6G2 | 
[V:2] d6B2B4 | 
[V:3] f4d6d2 | 
[V:4] F,4G,6G,2 | 
[V:1] G4A6F2 | 
[V:2] c6A2A4 | 
[V:3] e4c4d4 | 
[V:4] E,4F,6D,2 | 
[V:1] [M:2/1]F4z4 | 
[V:2] [M:2/1]z4A4 | 
[V:3] [M:2/1]d4f4 | 
[V:4] [M:2/1]D,8 | 
[V:1] d4d4- | 
[V:2] B6B2 | 
[V:3] f6f2 | 
[V:4] B,,4B,,4- | 
[V:1] d2d2c4 | 
[V:2] B4c4 | 
[V:3] f8 | 
[V:4] B,,2B,,2F,4 | 
[V:1] A4B4 | 
[V:2] d4B4 | 
[V:3] f4d4 | 
[V:4] F,4G,4 | 
[V:1] G4A4 | 
[V:2] c4A4- | 
[V:3] e4c4 | 
[V:4] E,4F,4 | 
[V:1] F6D2 | 
[V:2] A2F2F4 | 
[V:3] d6d2 | 
[V:4] D,6B,,2 | 
[V:1] (3:2:2D8d4 | 
[V:2] (3z4z4f4 | 
[V:3] (3d4f4d4 | 
[V:4] (3:2:2B,,8B,4 | 
[V:1] (3B4c6A2 | 
[V:2] (3:2:2g4e8 | 
[V:3] (3:2:2e8A4- | 
[V:4] (3:2:2G,4A,8 | 
[V:1] (3:2:2A8B4 | 
[V:2] (3:2:2f8d4 | 
[V:3] (3A4d4B4 | 
[V:4] (3:2:2D,8G,4 | 
[V:1] (3G4A6F2 | 
[V:2] (3:2:2_e4c8 | 
[V:3] (3:2:2c8F4- | 
[V:4] (3:2:2_E,4F,8 | 
[V:1] (3:2:2F8G4 | 
[V:2] (3:2:2d8B4 | 
[V:3] (3F4B4G4 | 
[V:4] (3:2:2B,,8_E,4 | 
[V:1] (3:2:2E4F8 | 
[V:2] (3:2:2c4A8 | 
[V:3] A4D4 | 
[V:4] (3:2:2C,4D,8 | 
[V:1] G4z2G2 | 
[V:2] G4z4 | 
[V:3] z2G2B2G2 | 
[V:4] G,,8 | 
[V:1] B2G2d4- | 
[V:2] G4B2G2 | 
[V:3] g3gg4 | 
[V:4] z4G,,4 | 
[V:1] d2d2d4 | 
[V:2] d6d2 | 
[V:3] z8 | 
[V:4] B,,2G,,2G,4- | 
[V:1] B2B2B2B2 | 
[V:2] d4z4 | 
[V:3] g2g2g2g2 | 
[V:4] G,2G,2G,4 | 
[V:1] c4d4- | 
[V:2] z8 | 
[V:3] e2f4d2 | 
[V:4] z8 | 
[V:1] d2d2d4 | 
[V:2] B2B2B2B2 | 
[V:3] d4z4 | 
[V:4] G,2G,2G,2G,2 | 
[V:1] z8 | 
[V:2] c4d4- | 
[V:3] z8 | 
[V:4] E,2F,4D,2 | 
[V:1] z8 | 
[V:2] d2d2d4 | 
[V:3] z4f4 | 
[V:4] D,8 | 
[V:1] B4c4 | 
[V:2] d2e4c2 | 
[V:3] g4e4 | 
[V:4] G,4A,4 | 
[V:1] A2A2B4 | 
[V:2] c2d4B2 | 
[V:3] f4d2g2- | 
[V:4] F,2D,2G,4 | 
[V:1] G4G2A2- | 
[V:2] B2c3BAG | 
[V:3] gf_ed_e2c2 | 
[V:4] _E,4C,2F,2- | 
[V:1] AGFE^F2F2 | 
[V:2] A4A4 | 
[V:3] d6d2 | 
[V:4] F,_E,D,C,D,2D,2 | 
[V:1] G8 | 
[V:2] G8 | 
[V:3] d8 | 
[V:4] G,,4z4 | 
[V:1] [M:3/1]z12 | 
[V:2] [M:3/1]B4B4B4 | 
[V:3] [M:3/1]z12 | 
[V:4] [M:3/1]G,4G,4G,4 | 
[V:1] z12 | 
[V:2] c8A4 | 
[V:3] z12 | 
[V:4] A,8F,4 | 
[V:1] z12 | 
[V:2] F4G4A4 | 
[V:3] z12 | 
[V:4] D,4_E,4C,4 | 
[V:1] z4z4F4 | 
[V:2] B8B4 | 
[V:3] z4z4d4 | 
[V:4] B,,8B,,4 | 
[V:1] F4G6G2 | 
[V:2] B4G6G2 | 
[V:3] d4B6B2 | 
[V:4] B,,4_E,6E,2 | 
[V:1] G4^F8 | 
[V:2] _e4d8 | 
[V:3] c4A8 | 
[V:4] C,4D,8 | 
[V:1] [M:2/1]G2B4B2 | 
[V:2] [M:2/1]B4B2B2 | 
[V:3] [M:2/1]G4d2d2 | 
[V:4] [M:2/1]G,,2G,4G,2 | 
[V:1] B4A4 | 
[V:2] B4f4 | 
[V:3] d4d4 | 
[V:4] G,4D,4 | 
[V:1] B2A2B2G2 | 
[V:2] B2f2d2e2 | 
[V:3] d2d2B2c2 | 
[V:4] G,2F,2G,2E,2 | 
[V:1] A2B2B2c2- | 
[V:2] f2d2g4- | 
[V:3] d2B2_e4 | 
[V:4] D,2G,4C,2 | 
[V:1] cBB4A2 | 
[V:2] g2d2f3e | 
[V:3] d2B2c4 | 
[V:4] G,4F,4 | 
[V:1] B4z2d2- | 
[V:2] d4z4 | 
[V:3] B4d4- | 
[V:4] B,,4z2B,2- | 
[V:1] dcB2A2B2 | 
[V:2] B2B2f2B2 | 
[V:3] d2d2d2d2 | 
[V:4] B,A,G,2F,2G,2 | 
[V:1] A2B2A2B2 | 
[V:2] f2B2f2d2 | 
[V:3] d2d2d2B2 | 
[V:4] D,2G,2F,2G,2 | 
[V:1] A2G3^FFE | 
[V:2] _e4d4 | 
[V:3] c3BA4 | 
[V:4] C,4D,4 | 
[V:1] GABcd2GA | 
[V:2] B4GABc | 
[V:3] G8- | 
[V:4] G,,8- | 
[V:1] Bcd4cB | 
[V:2] d2GABcd2- | 
[V:3] G8 | 
[V:4] G,,8 | 
[V:1] A8 | 
[V:2] d2cBA4 | 
[V:3] z4F4 | 
[V:4] z4D,4 | 
[V:1] z8 | 
[V:2] z8 | 
[V:3] G3ABcd2- | 
[V:4] E,2G,4F,2- | 
[V:1] z8 | 
[V:2] z8 | 
[V:3] d2c4B2 | 
[V:4] F,E,D,C,D,4 | 
[V:1] z4F4 | 
[V:2] z4z2d2 | 
[V:3] c2G2A4 | 
[V:4] C,2E,2D,4 | 
[V:1] G3ABcd2- | 
[V:2] e2g4f2- | 
[V:3] z8 | 
[V:4] z8 | 
[V:1] dcc4=B2 | 
[V:2] fedcd4 | 
[V:3] z8 | 
[V:4] z8 | 
[V:1] c8 | 
[V:2] c4_e4- | 
[V:3] z4G4- | 
[V:4] C,6C,2 | 
[V:1] G3AB2B2 | 
[V:2] e2_e2d4 | 
[V:3] G2G2G2G2 | 
[V:4] C,4G,,4 | 
[V:1] c2GABcd2- | 
[V:2] c4B4 | 
[V:3] E4z2G2 | 
[V:4] C,4z2G,,2 | 
[V:1] dcc4=B2 | 
[V:2] c3_ed4 | 
[V:3] E3FG4 | 
[V:4] A,,2C,2G,,2G,F, | 
[V:1] c4G3A | 
[V:2] c8 | 
[V:3] C8 | 
[V:4] _E,D,C,4B,,A,, | 
[V:1] B8 |]  
[V:2] d8 |]  
[V:3] G8 |]  
[V:4] G,,8 |]  



